X: 11694
T: Einini
R: waltz
M: 3/4
K: Gmajor
d2|B2 B2 d2|B2 A2 BG|A2 A2 BG|A2 A2 d2|
B2 B2 d2|B2 A2 AF|G2 G2 AF|G6-|G4 d2||
e2 e2 ge|e2 d2 dB|A2 A2 BG|A2 A2 d2|
e2 e2)ge|e2 d2 BA|G2 G2 AF|G6-|G4||

